public/images/profile.svg

<?xml version="1.0" encoding="utf-8"?>
<!-- Generator: Adobe Illustrator 16.0.0, SVG Export Plug-In . SVG Version: 6.00 Build 0)  -->
<!DOCTYPE svg PUBLIC "-//W3C//DTD SVG 1.1//EN" "http://www.w3.org/Graphics/SVG/1.1/DTD/svg11.dtd">
<svg version="1.1" id="Capa_1" xmlns="http://www.w3.org/2000/svg" xmlns:xlink="http://www.w3.org/1999/xlink" x="0px" y="0px"
	 width="48px" height="48px" viewBox="0 0 48 48" enable-background="new 0 0 48 48" xml:space="preserve">
<path fill="#FFFFFF" d="M11.1,35.25c2.1-1.467,4.183-2.592,6.25-3.375S21.633,30.7,24,30.7s4.592,0.392,6.675,1.175
	s4.175,1.908,6.275,3.375c1.466-1.8,2.509-3.617,3.125-5.45S41,26.033,41,24c0-4.833-1.625-8.875-4.875-12.125S28.834,7,24,7
	c-4.833,0-8.875,1.625-12.125,4.875S7,19.167,7,24c0,2.033,0.317,3.967,0.95,5.8C8.583,31.633,9.633,33.45,11.1,35.25z M24,25.5
	c-1.933,0-3.558-0.658-4.875-1.975c-1.317-1.316-1.975-2.941-1.975-4.875c0-1.933,0.658-3.558,1.975-4.875S22.067,11.8,24,11.8
	c1.934,0,3.559,0.659,4.875,1.975c1.316,1.317,1.975,2.942,1.975,4.875c0,1.934-0.658,3.559-1.975,4.875
	C27.559,24.842,25.934,25.5,24,25.5z M24,44c-2.733,0-5.317-0.525-7.75-1.575s-4.558-2.483-6.375-4.3s-3.25-3.941-4.3-6.375
	C4.525,29.316,4,26.732,4,24c0-2.767,0.525-5.358,1.575-7.775c1.05-2.417,2.483-4.534,4.3-6.35s3.942-3.25,6.375-4.3
	C18.683,4.525,21.267,4,24,4c2.768,0,5.357,0.525,7.775,1.575c2.416,1.05,4.533,2.483,6.35,4.3s3.25,3.934,4.3,6.35S44,21.233,44,24
	c0,2.732-0.525,5.316-1.575,7.75s-2.483,4.559-4.3,6.375s-3.934,3.25-6.35,4.3C29.357,43.475,26.768,44,24,44z M24,41
	c1.834,0,3.625-0.268,5.375-0.8c1.75-0.534,3.475-1.468,5.175-2.8c-1.7-1.2-3.433-2.117-5.2-2.75C27.584,34.018,25.8,33.7,24,33.7
	s-3.583,0.315-5.35,0.95c-1.767,0.633-3.5,1.55-5.2,2.75c1.7,1.332,3.425,2.266,5.175,2.8C20.375,40.732,22.167,41,24,41z M24,22.5
	c1.133,0,2.059-0.358,2.775-1.075c0.717-0.716,1.074-1.642,1.074-2.775c0-1.133-0.357-2.058-1.074-2.775S25.133,14.8,24,14.8
	s-2.058,0.358-2.775,1.075c-0.717,0.717-1.075,1.642-1.075,2.775c0,1.133,0.358,2.059,1.075,2.775
	C21.942,22.142,22.867,22.5,24,22.5z M24,18.65L24,18.65L24,18.65L24,18.65L24,18.65L24,18.65L24,18.65L24,18.65L24,18.65z
	 M24,37.35L24,37.35L24,37.35L24,37.35L24,37.35L24,37.35L24,37.35L24,37.35L24,37.35z"/>
</svg>

<svg xmlns="http://www.w3.org/2000/svg" height="48" width="48"><path d="M11.1 35.25Q14.25 33.05 17.35 31.875Q20.45 30.7 24 30.7Q27.55 30.7 30.675 31.875Q33.8 33.05 36.95 35.25Q39.15 32.55 40.075 29.8Q41 27.05 41 24Q41 16.75 36.125 11.875Q31.25 7 24 7Q16.75 7 11.875 11.875Q7 16.75 7 24Q7 27.05 7.95 29.8Q8.9 32.55 11.1 35.25ZM24 25.5Q21.1 25.5 19.125 23.525Q17.15 21.55 17.15 18.65Q17.15 15.75 19.125 13.775Q21.1 11.8 24 11.8Q26.9 11.8 28.875 13.775Q30.85 15.75 30.85 18.65Q30.85 21.55 28.875 23.525Q26.9 25.5 24 25.5ZM24 44Q19.9 44 16.25 42.425Q12.6 40.85 9.875 38.125Q7.15 35.4 5.575 31.75Q4 28.1 4 24Q4 19.85 5.575 16.225Q7.15 12.6 9.875 9.875Q12.6 7.15 16.25 5.575Q19.9 4 24 4Q28.15 4 31.775 5.575Q35.4 7.15 38.125 9.875Q40.85 12.6 42.425 16.225Q44 19.85 44 24Q44 28.1 42.425 31.75Q40.85 35.4 38.125 38.125Q35.4 40.85 31.775 42.425Q28.15 44 24 44ZM24 41Q26.75 41 29.375 40.2Q32 39.4 34.55 37.4Q32 35.6 29.35 34.65Q26.7 33.7 24 33.7Q21.3 33.7 18.65 34.65Q16 35.6 13.45 37.4Q16 39.4 18.625 40.2Q21.25 41 24 41ZM24 22.5Q25.7 22.5 26.775 21.425Q27.85 20.35 27.85 18.65Q27.85 16.95 26.775 15.875Q25.7 14.8 24 14.8Q22.3 14.8 21.225 15.875Q20.15 16.95 20.15 18.65Q20.15 20.35 21.225 21.425Q22.3 22.5 24 22.5ZM24 18.65Q24 18.65 24 18.65Q24 18.65 24 18.65Q24 18.65 24 18.65Q24 18.65 24 18.65Q24 18.65 24 18.65Q24 18.65 24 18.65Q24 18.65 24 18.65Q24 18.65 24 18.65ZM24 37.35Q24 37.35 24 37.35Q24 37.35 24 37.35Q24 37.35 24 37.35Q24 37.35 24 37.35Q24 37.35 24 37.35Q24 37.35 24 37.35Q24 37.35 24 37.35Q24 37.35 24 37.35Z"/></svg>
